X: 36068
T: Scartaglen, The
R: reel
M: 4/4
K: Dmajor
DFEF D3d|=cABG EFGE|F2EF D2dB|=cAG=c AD3|
DFEF DEDd|=cABG EFGB|AddA dfed|cAGE FDD2||
f3f fage|fedf afde|f3(f f)age|fdec Adde|
f3f fage|fedf afde|fage dged|dcAG EGGE||

